**kern	**kern	**kern
*staff3	*staff2	*staff1
*tb8	*tb8	*tb8
=1-	=1-	=1-
*clefF4	*clefG2	*clefG2
*met(c)	*met(c)	*met(c)
*M4/4	*M4/4	*M4/4
1C/	8g\L	4ee\
.	8ee\	.
.	8f\	4dd\
.	8dd\J	.
.	8e/L	4cc\
.	8cc/	.
.	8d/	4b\
.	8b/J	.
=2	=2	=2
1C/	8e/L	4cc\
.	8cc/	.
.	8g/ 8b/	8b\
.	8f/J 8a/J	8a/
.	8e/L 8g/L	4g/
.	8c/	.
.	8f/ 8a/	4a/
.	8c/J	.
=3	=3	=3
4E\ 4G\	4g/ 4cc/	4cc\
4D\ 4G\	4f/ 4b/	4b\
4BB\ 4G\	4f/ 4dd/	4dd\
4C\ 4G\	4e/ 4cc/	4cc\
=4	=4	=4
!!linebreak:original
*	*^	*
2.GG/ 2.G/	4e/	2c\	(2ee\
.	4f#/	.	.
.	4g/	4B\	4dd\)
*	*v	*v	*
4r	4r	4r
=5	=5	=5
1DD/	8A/L	4ff\
.	8a/	.
.	8g/	4ee\
.	8a/J	.
.	8f/L	4dd\
.	8a/	.
.	8e/	4cc\
.	8cc/J	.
=6	=6	=6
2GG/	8d/L	(4cc\
.	8f/	.
.	8d/	2b\)
.	8b/J	.
4AA/	8c/L	.
.	8f/	.
4BB/	8d/ 8a/	8a/
.	8f/J 8g/J	8g/
=7:|!	=7:|!	=7:|!
!!linebreak:original
=	=	=
2C\ 2G\	2e/ 2g/	8g/
.	.	8f#/
.	.	8g/
.	.	8a/
4D\ 4G\	4d/	4.b\
4D\ 4F#\	4c/	.
.	.	8a/
=8	=8	=8
8GG\L	4B/	4g/
8D\	.	.
8G\	4r	4r
8B\J	.	.
4r	8d/L	4r
.	8g/	.
8d\L	8f/ 8b/	8b\
8c\J	8cc/J	8cc\
=9	=9	=9
*^	*	*
2B/	1G/	[2f/ [2dd/	(2dd\
4d/	.	4f/] 4b/	4b\)
4c/	.	8f/ 8cc/	8cc\L
.	.	8a/	8a\J
*v	*v	*	*
=10	=10	=10
!!linebreak:original
*^	*^	*
2B/	1G/	(2dd/]	[2f\ [2g\	1g/
4d/	.	4b/)	2f\] 2g\]	.
8c/L	.	8a/L	.	.
8B/J	.	8g/J	.	.
*v	*v	*	*	*
*	*v	*v	*
=11	=11	=11
1C/	8e/L 8g/L	(4.ee\
.	8G/	.
.	8c/ 8e/	.
.	8G/J	8cc\)
.	8e/L 8g/L	4g/
.	8G/	.
.	8c/ 8e/	4r
.	8G/J	.
=12	=12	=12
1C/	8g/L	(4.ee-\
.	8G/	.
.	8c/ 8e-/	.
.	8G/J	8cc\)
.	8g/L	2g/
.	8G/	.
.	8c/ 8e-/	.
.	8G/J	.
=13	=13	=13
*^	*^	*
4c/	2.G\	4ee-/	2g\	4ee-\
8f/L	.	8dd/L	.	8dd\L
8e-/J	.	8cc/J	.	8cc\J
*	*	*v	*v	*
4d/	.	4g/ 4b/	(4b\
4B/	4G\	4f/ 4g/	8cc\)
.	.	.	8dd\
*v	*v	*	*
=14	=14	=14
!!linebreak:original
*	*^	*
2C\ 2c\	2g/	2e-\	4cc\
.	.	.	4r
4FF/	8a-/L 8cc/L	2c\	8cc\
.	8a-/J 8cc/J	.	8cc\
4AA-/	8g/J 8b-/J	.	8b-\
.	8f/J 8a-/J	.	8a-/
=15	=15	=15	=15
2C/	4f/ 4a-/	2c\	4a-/
.	4e/ 4g/	.	4g/
4FF/	2a-/ 2cc/	4c\	4.cc\
4AA-/	.	4f\	.
.	.	.	8a-/
*	*v	*v	*
=16	=16	=16
2C/	4f/ 4a-/	4a-/
.	4e/ 4g/	4g/
4c\	4e/ 4g/	4g/
4B\	4d/ 4g/	4g/
=17	=17	=17
!!linebreak:original
4A\ 4c\	4e/ 4cc/	1cc'/
4G\ 4c\	4e/ 4b/	.
4F\ 4c\	4f/ 4a/	.
4E\ 4c\	4g/	.
=18	=18	=18
*^	*	*
1ryy	4D\ 4F\	4f/	8cc\L
.	.	.	8b\J
*v	*v	*	*
4r	4r	8ff\L
.	.	8ee\J
.	[2g/	8ee\L
.	.	8dd\J
.	.	8cc\L
.	.	8b\J
*^	*	*
4B/	2F\	=19	=19
.	.	4g/]	4cc\
4d/	.	.	.
.	.	2g/	4r
=19	=19	.	.
4c/	2E\	.	4r
2B-/	.	4f/	8cc/L
.	.	.	8f/J
.	4F\	=20	=20
!!linebreak:original
.	.	2c/ 2e/	(2e/
4F/	4AA\	.	.
*v	*v	*	*
=20	.	.
!!linebreak:original
*^	*	*
2G/	2GG\	4c\	4d/
.	.	4B\	8f/L
.	.	.	8e/J)
4A/	4FF\	=21	=21
.	.	1r	4c/
4F/	4GG\	.	.
.	.	.	4r
*v	*v	*	*
=21	.	.
*^	*	*
*	*^	*	*
2CC\	4E/ 4c/	1C/	.	2r
*	*v	*v	*	*
.	4E/ 4G/	.	.
2FF\	4F/ 4A/	=22	=22
.	.	1r	1r
.	8A/L 8c/L	.	.
.	8F/J 8A/J	.	.
=22	=22	.	.
2F/ 2A/	1CC/ 1C/	.	.
4E/ 4G/	.	=23	=23
!!linebreak:original
*	*	*k[b-e-a-]	*k[b-e-a-]
*	*	*met(c)	*met(c)
*	*	*M4/4	*M4/4
.	.	8e-/L 8g/L	1r
4r	.	8B-/	.
.	.	8B-/	.
*v	*v	*	*
=23	8e-/J 8g/J	.
!!linebreak:original
*k[b-e-a-]	*	*
*met(c)	*	*
*M4/4	*	*
2.EE-/ 2.E-/	8e-/L 8g/L	.
.	8B-/	.
.	8B-/	.
.	8e-/J 8g/J	.
.	=24	=24
.	8e-/L 8a-/L	2r
4DD-/ 4D-/	8c/	.
.	8c/	.
=24	8e-/J 8a-/J	.
2.CC/ 2.C/	8f/L 8a-/L	4r
.	8B-/	.
.	8B-/	8b-\
.	8f/J 8a-/J	8b-\
.	=25	=25
.	8e-/L 8g/L	4b-\
4DDn/ 4Dn/	8B-/	.
.	8B-/	8cc\
=25	8e-/J 8g/J	8dd\
4EE-/ 4E-/	8e-/L 8g/L	8ff\L
.	8c/	8ee-\J
4DD/ 4D/	8c/	8dd\L
.	8e-/J 8g/J	8cc\J
2CC/ 2C/	=26	=26
!!linebreak:original
.	1r	(4b-\
.	.	4a-/)
=26	.	.
!!linebreak:original
2CC/ 2C/	.	4r
.	.	8b-\L
.	.	8cc\J
2r	=27	=27
.	8f/L 8a-/L	4.cc\
.	8B-/	.
.	8B-/	.
=27	8f/J 8a-/J	8f/
2DD/ 2D/	8e-/L 8a-/L	4f/
.	8B-/	.
.	8B-/	8g/L
.	8e-/J 8a-/J	8a-/J
2CC/ 2C/	=28	=28
.	8d/L 8a-/L	4d/
.	8B-/	.
.	8B-/	4r
=28	8d/J 8a-/J	.
1BBB-/ 1BB-/	8d/L 8a-/L	8r
.	8B-/	8d/
.	8B-/	8e-/
.	8d/J 8a-/J	8f/
.	=29	=29
!!linebreak:original
.	8e-/L 8g/L	8g/L
.	8B-/	8a-/J
.	8B-/	4b-\
=29	8e-/J 8g/J	.
!!linebreak:original
2EE-/ 2E-/	8e-/L 8g/L	8b-\L
.	8B-/	8bn\J
.	8B-/	8cc\L
.	8e-/J 8g/J	8dd\J
2DD/ 2D/	=30	=30
.	8e-/L 8g/L	(4ff\
.	8c/	.
.	8c/	4ee-\)
=30	8e-/J 8g/J	.
1CC/ 1C/	8e-/L 8g/L	4r
.	8c/	.
.	8c/	8dd\L
.	8e-/J 8g/J	8cc\J
.	=31	=31
.	8en/L 8g/L	4b-\
.	8B-/	.
.	8B-/	8an/L
=31	8e/J 8g/J	8g/J
2CC#/ 2C#/	8c/L 8g/L	4b-\
.	8An/	.
.	8A/	8a/L
.	8c/J 8g/J	8g/J
2EEn/ 2En/	=32	=32
!!linebreak:original
.	8d/L 8f#/L	4an/
.	8An/	.
.	8A/	4r
=32	8d/J 8f#/J	.
!!linebreak:original
1DD/ 1D/	8d/L 8f#/L	4r
.	8A/	.
.	8A/	4d/
.	8d/J 8f#/J	.
.	=33	=33
.	8d/L 8g/L	4bn\
.	8Bn/	.
.	8B/	4g/
=33	8d/J 8g/J	.
2GG/ 2G/	8d/L 8g/L	4dd\
.	8B/	.
.	8B/	4g/
.	8d/J 8g/J	.
2FF/ 2F/	=34	=34
.	8e-/L 8g/L	([2ee-\
.	8c/	.
.	8c/	.
=34	8e-/J 8g/J	.
1EE-/ 1E-/	8e-/L 8g/L	8ee-\L]
.	8B-/	8dd-\J)
.	8B-/	8cc\L
.	8e-/J 8g/J	8b-\J
.	=35	=35
!!linebreak:original
.	8e-/L 8a-/L	(4bn\
.	8c/	.
.	8c/	4cc\)
=35	8e-/J 8a-/J	.
!!linebreak:original
2AA-\ 2A-\	8en/L 8b-/L	4r
.	8c/	.
.	8c/	8cc\L
.	8e/J 8b-/J	8b-\J
2GG/ 2G/	=36	=36
.	8f/L 8a-/L	8a-/L
.	8c/	8f/J
.	8c/	8cc\L
=36	8f/J 8a-/J	8a-\J
4FF/ 4F/	8f/L 8a-/L	4.ff\
.	8B-/	.
4EE-/ 4E-/	8B-/	.
.	8f/J 8a-/J	8ee-\
4DD/ 4D/	=37	=37
.	8f/L 8a-/L	4dd\
4CC/ 4C/	8B-/	.
.	8B-/	4r
=37	8f/J 8a-/J	.
4BBB-/ 4BB-/	8f/L 8a-/L	4r
.	8B-/	.
4BBB-/ 4BB-/	8B-/	4b-\
.	8f/J 8a-/J	.
4CC/ 4C/	=38	=38
!!linebreak:original
.	8e-/L 8g/L	(8ee-\L
4DD/ 4D/	8B-/	8ff\
.	8B-/	8gg\
=38	8e-/J 8g/J	8dd\J
!!linebreak:original
2EE-/ 2E-/	8e-/L 8g/L	8ff\L
.	8c/	8ee-\J)
.	8c/	8dd\L
.	8e-/J 8g/J	8cc\J
2EE-/ 2E-/	=39	=39
.	8f/L 8a-/L	(8b-/L
.	8c/	8a-/
.	8c/	8g/
=39	8f/J 8a-/J	8a-/J
2EE-/ 2E-/	8f/L 8a-/L	8dd\L
.	8B-/	8cc\J)
.	8B-/	8b-/L
.	8f/J 8a-/J	8a-/J
2DD/ 2D/	=40	=40
.	8e-/L 8g/L	4g/
.	8B-/	.
.	8B-/	4r
=40	8e-/J 8g/J	.
4EE-/ 4E-/	8e-/L 8a-/L	4r
.	8B-/	.
4EE-/ 4E-/	8B-/	4b-\
.	8e-/J 8a-/J	.
4FF/ 4F/	=41	=41
.	8e-/L 8g/L	4.ee-\
4BBB-/ 4BB-/	8B-/	.
.	8B-/	.
=41	8e-/J 8g/J	8e-/
2EE-/ 2E-/	8e-/L 8g/L	8e-/L
.	8B-/	8g/J
.	8B-/	8b-\L
.	8e-/J 8g/J	8ee-\J
2DD-/ 2D-/	=42	=42
!!linebreak:original
.	8e-/L 8a-/L	4.ee-\
.	8A-/	.
.	8A-/	.
=42	8e-/J 8a-/J	8e-/
!!linebreak:original
2CC-/ 2C-/	8e-/L 8g-/L	8e-/L
.	8B-/	8g-/J
.	8B-/	8b-\L
.	8e-/J 8g-/J	8ee-\J
2BBB-/ 2BB-/	=43	=43
.	8e-/L 8g-/L	4.ee-\
.	8c/	.
.	8c/	.
=43	8e-/J 8f/J	8ff\
2AAAn/ 2AAn/	8e-/L 8an/L	4gg-\
.	8c/	.
.	8c/	4an/
.	8e-/J 8f/J	.
2FFF/ 2FF/	=44	=44
.	8d/L	4b-\
.	8B-/	.
.	8d/ 8f/	4r
=44	8B-/J	.
4BBB-/ 4BB-/	8e-/L 8g/L	4r
.	8B-/	.
4AA-\ 4A-\	8d/ 8a-/	4b-\
.	8B-/J	.
4GG/ 4G/	=45	=45
!!linebreak:original
.	4B-/ 4e-/ 4g/	(8b-\
4FF/ 4F/	.	4gg\
.	4a-\ 4dd\	.
=45	.	4ff\
!!linebreak:original
4EE-/ 4E-/	4g/ 4cc/	.
.	.	4ee-\
4BBn/	4f/ 4bn/	.
.	.	[8dd\)
4C/	=46	=46
.	4e-/ 4a-/	8dd\]
4GG/	.	4cc\
.	4d-/ 4g/	.
=46	.	4b-\
4AA-/	4c/ 4f/	.
.	.	4a-/
4EEn/	4B-/ 4d-/	.
.	.	[8g/
4FF/	=47	=47
.	2A-/ 2c/	8g/L]
4GG/	.	8en/
.	.	8f/
=47	.	8g/J
2AA-/	2r	8a-/L
.	.	8b-'/J
.	.	8bn\L
.	.	8cc\J
2r	=48	=48
.	4A-/ 4d/	2.e-/
.	4r	.
=48	.	.
*^	*	*
8B-/L	1BB-/	4r	.
8c/J	.	.	.
8An/J	.	4r	8g/L
=	=	.	8f/J
*v	*v	*	*
=49	=49	=49
!!linebreak:original
2.EE-/ 2.E-/	8e-/L 8g/L	4e-/
.	8B-/	.
.	8B-/	4r
.	8e-/J 8g/J	.
.	8e-/L 8g/L	2r
.	8B-/	.
4DD-/ 4D-/	8B-/	.
.	8e-/J 8g/J	.
=50	=50	=50
2.CC/ 2.C/	8e-/L 8a-/L	2r
.	8c/	.
.	8c/	.
.	8e-/J 8a-/J	.
.	8f/L 8a-/L	(4.cc\
.	8B-/	.
4DDn/ 4Dn/	8B-/	.
.	8f/J 8a-/J	8b-\)
=51	=51	=51
4EE-/ 4E-/	8e-/L 8g/L	8b-\
.	8B-/	8b-\
4DD/ 4D/	8B-/	8cc\
.	8e-/J 8g/J	8dd\
2CC/ 2C/	8e-/L 8g/L	8ff\L
.	8c/	8ee-\J
.	8c/	8dd\L
.	8e-/J 8g/J	8cc\J
=52	=52	=52
!!linebreak:original
2CC/ 2C/	8e-/L 8a-/L	(4b-\
.	8c/	.
.	8c/	4a-/)
.	8e-/J 8a-/J	.
2r	8e-/L 8a-/L	4r
.	8c/	.
.	8c/	8b-\L
.	8e-/J 8a-/J	8cc\J
=53	=53	=53
2DD/ 2D/	8f/L 8a-/L	4.cc\
.	8B-/	.
.	8B-/	.
.	8f/J 8a-/J	8f/
2CC/ 2C/	8e-/L 8a-/L	4f/
.	8B-/	.
.	8B-/	8g/L
.	8e-/J 8a-/J	8a-/J
=54	=54	=54
1BBB-/ 1BB-/	8d/L 8a-/L	4d/
.	8B-/	.
.	8B-/	8r
.	8d/J 8a-/J	8d/
.	8d/L 8a-/L	4e-/
.	8B-/	.
.	8B-/	4f/
.	8d/J 8a-/J	.
=55	=55	=55
!!linebreak:original
2EE-/ 2E-/	8e-/L 8g/L	8g/
.	8B-/	8a-/
.	8B-/	(4b-\
.	8e-/J 8g/J	.
2DD/ 2D/	8e-/L 8g/L	8b-\L
.	8B-/	8bn\J)
.	8B-/	8cc\L
.	8e-/J 8g/J	8dd\J
=56	=56	=56
1CC/ 1C/	8e-/L 8g/L	(4ff\
.	8c/	.
.	8c/	4ee-\)
.	8e-/J 8g/J	.
.	8e-/L 8g/L	4r
.	8c/	.
.	8c/	8dd\L
.	8e-/J 8g/J	8cc\J
=57	=57	=57
2BBB-/ 2C#/	8en/L 8g/L	4b-\
.	8B-/	.
.	8B-/	8an/L
.	8e/J 8g/J	8g/J
2EEn/ 2En/	8c/L 8g/L	4b-\
.	8An/	.
.	8A/	(8a/L
.	8c/J 8g/J	8g/J)
=58	=58	=58
!!linebreak:original
1D/	8d/L 8f#/L	4an/
.	8An/	.
.	8A/	4r
.	8d/J 8f#/J	.
.	8d/L 8f#/L	4r
.	8A/	.
.	8A/	4d/
.	8d/J 8f#/J	.
=59	=59	=59
2GG/ 2G/	8d/L 8g/L	4bn\
.	8Bn/	.
.	8B/	4g/
.	8d/J 8g/J	.
2F/	8d/L 8g/L	4dd\
.	8B/	.
.	8B/	4g/
.	8d/J 8g/J	.
=60	=60	=60
1E-/	8e-/L 8g/L	([2ee-\
.	8c/	.
.	8c/	.
.	8e-/J 8g/J	.
.	8e-/L 8g/L	8ee-\L]
.	8B-/	8dd-\J)
.	8B-/	8cc\L
.	8e-/J 8g/J	8b-\J
=61	=61	=61
!!linebreak:original
2AA-\ 2A-\	8e-/L 8a-/L	(4bn\
.	8c/	.
.	8c/	4cc\)
.	8e-/J 8a-/J	.
2GG/ 2G/	8en/L 8b-/L	4r
.	8c/	.
.	8c/	8cc\L
.	8e/J 8b-/J	8b-\J
=62	=62	=62
4FF/ 4F/	8f/L 8a-/L	8a-/L
.	8c/	8f/J
4EE-/ 4E-/	8c/	8cc\L
.	8f/J 8a-/J	8a-\J
4DD/ 4D/	8f/L 8a-/L	4ff\
.	8B-/	.
4CC/ 4C/	8B-/	4ee-\
.	8f/J 8a-/J	.
=63	=63	=63
4BBB-/ 4BB-/	8f/L 8a-/L	(4ee-\
.	8B-/	.
4BBB-/ 4BB-/	8B-/	4dd\)
.	8f/J 8a-/J	.
4CC/ 4C/	8f/L 8a-/L	4r
.	8B-/	.
4DD/ 4D/	8B-/	4b-\
.	8f/J 8a-/J	.
=64	=64	=64
!!linebreak:original
2EE-/ 2E-/	8e-/L 8g/L	(8ee-\L
.	8B-/	8ff\
.	8B-/	8gg\
.	8e-/J 8g/J	8dd\J
2EE-/ 2E-/	8e-/L 8g/L	8ff\L
.	8c/	8ee-\J)
.	8c/	8dd\L
.	8e-/J 8g/J	8cc\J
=65	=65	=65
2EE-/ 2E-/	8f/L 8a-/L	(8b-/L
.	8c/	8a-/
.	8c/	8g/
.	8f/J 8a-/J	8a-/J
2DD/ 2D/	8f/L 8a-/L	8dd\L
.	8B-/	8cc\J)
.	8B-/	8b-/L
.	8f/J 8a-/J	8a-/J
=66	=66	=66
4EE-/ 4E-/	8e-/L 8g/L	4g/
.	8B-/	.
4EE-/ 4E-/	8B-/	4r
.	8e-/J 8g/J	.
4FF/ 4F/	8e-/L 8a-/L	4r
.	8B-/	.
4BBB-/ 4BB-/	8B-/	4b-\
.	8e-/J 8a-/J	.
=67	=67	=67
2EE-/ 2E-/	8e-/L 8g/L	4.ee-\
.	8B-/	.
.	8B-/	.
.	8e-/J 8g/J	8e-/
2DD-/ 2D-/	8e-/L 8g/L	8e-/L
.	8B-/	8g/J
.	8B-/	8b-\L
.	8e-/J 8g/J	8ee-\J
=68	=68	=68
!!linebreak:original
2CC-/ 2C-/	8e-/L 8a-/L	4.ee-\
.	8A-/	.
.	8A-/	.
.	8e-/J 8a-/J	8e-/
2BBB-/ 2DD/ 2BB-/	8e-/L 8g-/L	8e-/L
.	8B-/	8g-/J
.	8B-/	8b-\L
.	8e-/J 8g-/J	8ee-\J
=69	=69	=69
2AAAn/ 2AAn/	8e-/L 8g-/L	4.ee-\
.	8c/	.
.	8c/	.
.	8e-/J 8f/J	8ff\
2FFF/ 2DD/ 2FF/	8e-/L 8an/L	4gg-\
.	8c/	.
.	8c/	4an/
.	8e-/J 8f/J	.
=70	=70	=70
4BBB-/ 4BB-/	8d/L	4b-\
.	8B-/	.
4AA-\ 4A-\	8d/ 8f/	4r
.	8B-/J	.
4GG/ 4G/	8e-/L 8g/L	4r
.	8B-/	.
4FF/ 4F/	8d/ 8a-/	4b-\
.	8B-/J	.
=71	=71	=71
!!linebreak:original
4E-/	4B-/ 4e-/ 4g/	(8b-\
.	.	4gg\
4BBn/	4a-\ 4dd\	.
.	.	4ff\
4C/	4g/ 4cc/	.
.	.	4ee-\)
4GG/	4f/ 4bn/	.
.	.	8dd\
=72	=72	=72
4AA-/	4e-/ 4a-/	8dd\
.	.	4cc\
4EEn/	4d-/ 4g/	.
.	.	4b-\
4FF/	4c/ 4f/	.
.	.	4a-/
4GG/	4B-/ 4d-/	.
.	.	8g/
=73	=73	=73
2AA-/	2A-/ 2c/	8g/L
.	.	8en/
.	.	8f/
.	.	8g/J
2r	2r	8a-/L
.	.	8b-/J
.	.	8bn\L
.	.	8cc\J
=74	=74	=74
1BBB-/ 1BB-/ 8B-/L	4A-/ 4d/	2.e-/
.	4r	.
.	4r	.
.	4r	8g/L
.	.	8f/J
8c/	=75	=75
8An/	4G/ 4e-/	4e-/
8F#/J	.	.
4G/ 4B-/	4r	4r
4r	2r	2r
=75	.	.
2E-/	.	.
.	==	==
*	*-	*-
2r
==
*-
